!!!COM:	Hindemith
!!!OTL:	646_Hin-42/8/39-48
**kern	**kern	**dynam	**kern	**kern	**kern
*part5	*part4	*part4	*part3	*part2	*part1
*staff5	*staff4	*S	*staff3	*staff2	*staff1
*I"Violoncello	*I"Violin 1	*	*I"Violin	*I"Trumpet in C	*I"Flute
*I'Vc.	*I'Vln. 1	*	*I'Vln.	*I'C Tpt.	*I'Fl.
*clefF4	*clefG2	*	*clefG2	*clefG2	*clefG2
*k[]	*k[]	*	*k[]	*k[]	*k[]
*	*	*	*	*	*
*M2/4	*M2/4	*	*M2/4	*M2/4	*M2/4
=1	=1	=1	=1	=1	=1
!LO:TX:t=pizz.	!LO:TX:t=pizz.	!	!	!	!
16FFLL 16C	16cLL	.	4.a-X	2r	2r
16FFJ 16C	16cJ	.	.	.	.
8FFJ 8C	8cJ	.	.	.	.
8FFL 8C	8cL	.	.	.	.
16FFL 16C	16B-XL	.	(8b-X	.	.
16FFJJ 16C	16B-JJ	.	.	.	.
=2	=2	=2	=2	=2	=2
8FFL 8C	8B-XL	.	8a-XL	2r	2r
8FFJ 8Dn	8A-XJ	.	8g-XJ	.	.
16FFLL 16D	16A-LL	.	[4f	.	.
16FFJ 16D	16A-J	.	.	.	.
8FFJ 8D	8A-J	.	.	.	.
=3	=3	=3	=3	=3	=3
8FFL 8D	8GL	.	8fL])	2r	2r
8FFJ 8D	8GJ	.	(8ccJ	.	.
16FFLL 16En	16e-XLL	.	8ee-XL	.	.
16FFJ 16E	16e-J	.	.	.	.
8FFJ 8E	8e-J	.	8ccJ)	.	.
=4	=4	=4	=4	=4	=4
8FFL 8F	8dL	.	4.b-X	2r	2r
16FFL 16F	16dL	.	.	.	.
16FFJJ 16F	16dJJ	.	.	.	.
8FFL 8G	8dL	.	.	.	.
8FFJ 8G	8dJ	.	(8cc-X	.	.
=5	=5	=5	=5	=5	=5
16FFLL 16An	16d-XLL	.	8a-XL	4r	4r
16FFJ 16A	16d-J	.	.	.	.
8FFJ 8A	8d-J	.	8g-XJ	.	.
8FF 8A	8c	.	8f)	8r	8r
8r	8r	.	8r	(8gn	(8ggn
=6	=6	=6	=6	=6	=6
!!linebreak:original
!LO:TX:t=pizz.	!LO:TX:t=arco	!	!	!	!
16FFLL 16C	16cLL	.	16fLL	4.a-X)	4.aa-X)
16FFJ 16C	16cJ	.	16fJ	.	.
8FFJ 8C	8cJ	.	8fJ	.	.
8FFL 8C	8cL	.	8fL	.	.
16FFL 16C	16B-XL	.	16e-XL	(8b-X	(8bb-X
16FFJJ 16C	16B-JJ	.	16e-JJ	.	.
=7	=7	=7	=7	=7	=7
8FFL 8C	8B-XL	.	8e-XL	8a-XL	8aa-XL
8FFJ 8Dn	8A-XJ	.	8d-XJ	8g-XJ	8gg-XJ
16FFLL 16D	16A-LL	.	16d-LL	[4f	[4ff
16FFJ 16D	16A-J	.	16d-J	.	.
8FFJ 8D	8A-J	.	8d-J	.	.
=8	=8	=8	=8	=8	=8
8FFL 8D	8GL	.	8cL	8fL])	8ffL])
8FFJ 8D	8GJ	.	8cJ	(8ccJ	(8cccJ
16FFLL 16En	16e-XLL	.	16gLL	8ee-XL	8eee-XL
16FFJ 16E	16e-J	.	16gJ	.	.
8FFJ 8E	8e-J	.	8gJ	8ccJ	8cccJ
=9	=9	=9	=9	=9	=9
8FFL 8F	8dnL	.	8fL	4.b-X)	4.bb-X)
16FFL 16F	16dL	.	16fL	.	.
16FFJJ 16F	16dJJ	.	16fJJ	.	.
8FFL 8G	8B-XL	.	8e-XL	.	.
8FFJ 8G	8B-J	.	8e-J	(8cc-X	(8ccc-X
=10	=10	=10	=10	=10	=10
16FFLL 16F	16AnLL	.	16d-XLL	8a-XL	8aa-XL
16FFJ 16F	16AJ	.	16d-J	.	.
8FFJ 8F	8AJ	.	8cJ	8g-XJ	8gg-XJ
4r	8r	.	8r	8f)	8ff)
.	8f	p	8ff	8r	8r
==	==	==	==	==	==
*-	*-	*-	*-	*-	*-
!!!system-decoration: s1,s2[(s3,s4,s5)]
!!!ONB: Converted from MusicXML on 2019/06/05
